packages/icons/src/assets/minimal/captions-on.svg

<svg width="18" height="18" viewBox="0 0 18 18" fill="none" xmlns="http://www.w3.org/2000/svg">
<path d="M15 2C16.6569 2 18 3.34315 18 5V13C18 14.6569 16.6569 16 15 16H3C1.34315 16 1.61067e-08 14.6569 0 13V5C1.28853e-07 3.34315 1.34315 2 3 2H15ZM3.75 11.5C3.33579 11.5 3 11.8358 3 12.25C3 12.6642 3.33579 13 3.75 13H9.25C9.66421 13 10 12.6642 10 12.25C10 11.8358 9.66421 11.5 9.25 11.5H3.75ZM11.75 11.5C11.3358 11.5 11 11.8358 11 12.25C11 12.6642 11.3358 13 11.75 13H14.25C14.6642 13 15 12.6642 15 12.25C15 11.8358 14.6642 11.5 14.25 11.5H11.75ZM3.75 8.5C3.33579 8.5 3 8.83579 3 9.25C3 9.66421 3.33579 10 3.75 10H5.25C5.66421 10 6 9.66421 6 9.25C6 8.83579 5.66421 8.5 5.25 8.5H3.75ZM7.75 8.5C7.33579 8.5 7 8.83579 7 9.25C7 9.66421 7.33579 10 7.75 10H11.25C11.6642 10 12 9.66421 12 9.25C12 8.83579 11.6642 8.5 11.25 8.5H7.75ZM13.75 8.5C13.3358 8.5 13 8.83579 13 9.25C13 9.66421 13.3358 10 13.75 10H14.25C14.6642 10 15 9.66421 15 9.25C15 8.83579 14.6642 8.5 14.25 8.5H13.75Z" fill="black"/>
</svg>

<svg xmlns="http://www.w3.org/2000/svg" width="18" height="18" fill="currentColor" viewBox="0 0 18 18">
  <path d="M15 2a3 3 0 0 1 3 3v8a3 3 0 0 1-3 3H3a3 3 0 0 1-3-3V5a3 3 0 0 1 3-3zM3.75 11.5a.75.75 0 0 0 0 1.5h5.5a.75.75 0 0 0 0-1.5zm8 0a.75.75 0 0 0 0 1.5h2.5a.75.75 0 0 0 0-1.5zm-8-3a.75.75 0 0 0 0 1.5h1.5a.75.75 0 0 0 0-1.5zm4 0a.75.75 0 0 0 0 1.5h3.5a.75.75 0 0 0 0-1.5zm6 0a.75.75 0 0 0 0 1.5h.5a.75.75 0 0 0 0-1.5z"/>
</svg>
